X: 533
T: Dubuque
B: jims roots
M:4/4
L:1/4
Q: 1/4=100
K:D
V:1 
%S:via PR
"D"A,/2B,/2D/2E/2 DD/2E/2 | FB/2F/2 A2 | "G"B3/2d/2 B/2A/2F/2E/2 | "D"D/2E/2F/2D/2 "A"E/2D/2B, |
"D"A,/2B,/2D/2E/2 DD/2E/2 | "D"FB/2F/2 A2 | "G"B3/2d/2 B/2A/2F/2E/2 | "A"D/2E/2F/2E/2 "D"D2 :|
|: "D"F/2AF/2 AB/2A/2 | F/2E/2D/2F/2 E/2D/2B, | "G"G/2BG/2 BG/2A/2 | "G"B/2A/2G/2B/2 A/2G/2E/2D/2 |
"D"F/2AF/2 AB/2A/2 | "D"F/2E/2D/2F/2 "Bm"E/2D/2B, | "D"F/2E/2D/2F/2 E/2D/2B, | [1"A"A,/2B,/2D/2E/2 "D"F/2E/2D:|
V:2"A"A,/2B,/2D/2E/2 "D"D2|
% abcbook-tune_id 6298c2455745138b11d5b8ef


% abcbook-boost 0
% abcbook-tablature 
% abcbook-transpose 
% abcbook-lastupdated 1654178374072
% abcbook-soundfonts 
% abcbook-repeats 1
% Nottingham Music Database

